src/images/Icons/Red/DownloadCV.svg

<svg fill="none" height="25" viewBox="0 0 25 25" width="25" xmlns="http://www.w3.org/2000/svg"><path d="m19.5928 9.39679c-.4703 0-1.0933-.01041-1.8688-.01041-1.8915 0-3.4468-1.56563-3.4468-3.475v-3.35c0-.26354-.2114-.47813-.4724-.47813h-5.50843c-2.57117 0-4.65037 2.11042-4.65037 4.69688v11.22397c0 2.7135 2.17821 4.9125 4.86489 4.9125h8.20341c2.5629 0 4.64-2.0969 4.64-4.6854v-8.36566c0-.26458-.2104-.47812-.4723-.47708-.4404.00313-.9685.00833-1.2892.00833z" fill="#cd6b55"/><path d="m16.7546 2.6741c-.3114-.32396-.8552-.10104-.8552.34792v2.74687c0 1.15208.9479 2.1 2.1 2.1.7271.00833 1.7354.01042 2.5917.00833.4385-.00104.6614-.525.3573-.84166-1.099-1.14271-3.0667-3.19063-4.1938-4.36146z" fill="#cd6b55"/><path d="m15.7351 13.2384c-.3042-.301-.7938-.3031-1.0979.0021l-1.6552 1.6635v-5.0281c0-.42813-.3479-.77605-.7761-.77605-.4281 0-.776.34792-.776.77605v5.0281l-1.65627-1.6635c-.30312-.3052-.79375-.3031-1.09687-.0021-.30417.3021-.30417.7927-.00313 1.0969l2.98227 2.9958c.0709.0708.1563.1281.2511.1677.0937.0386.1958.0594.2989.0594.1042 0 .2063-.0208.3-.0604.0927-.0386.1771-.0959.2479-.1657l.0021-.001 2.9813-2.9958c.3021-.3042.3021-.7948-.0021-1.0969z" fill="#fff"/></svg>

<svg width="25" height="25" viewBox="0 0 25 25" fill="none" xmlns="http://www.w3.org/2000/svg">
<path d="M19.5928 9.39679C19.1225 9.39679 18.4995 9.38638 17.724 9.38638C15.8325 9.38638 14.2772 7.82075 14.2772 5.91138V2.56138C14.2772 2.29784 14.0658 2.08325 13.8048 2.08325H8.29637C5.7252 2.08325 3.646 4.19367 3.646 6.78013V18.0041C3.646 20.7176 5.82421 22.9166 8.51089 22.9166H16.7143C19.2772 22.9166 21.3543 20.8197 21.3543 18.2312V9.86554C21.3543 9.60096 21.1439 9.38742 20.882 9.38846C20.4416 9.39159 19.9135 9.39679 19.5928 9.39679Z" fill="#CD6B55"/>
<path d="M16.7546 2.6741C16.4432 2.35014 15.8994 2.57306 15.8994 3.02202V5.76889C15.8994 6.92097 16.8473 7.86889 17.9994 7.86889C18.7265 7.87722 19.7348 7.87931 20.5911 7.87722C21.0296 7.87618 21.2525 7.35222 20.9484 7.03556C19.8494 5.89285 17.8817 3.84493 16.7546 2.6741Z" fill="#CD6B55"/>
<path d="M15.7351 13.2384C15.4309 12.9374 14.9413 12.9353 14.6372 13.2405L12.982 14.904V9.8759C12.982 9.44777 12.6341 9.09985 12.2059 9.09985C11.7778 9.09985 11.4299 9.44777 11.4299 9.8759V14.904L9.77363 13.2405C9.47051 12.9353 8.97988 12.9374 8.67676 13.2384C8.37259 13.5405 8.37259 14.0311 8.67363 14.3353L11.6559 17.3311C11.7268 17.4019 11.8122 17.4592 11.907 17.4988C12.0007 17.5374 12.1028 17.5582 12.2059 17.5582C12.3101 17.5582 12.4122 17.5374 12.5059 17.4978C12.5986 17.4592 12.683 17.4019 12.7538 17.3321L12.7559 17.3311L15.7372 14.3353C16.0393 14.0311 16.0393 13.5405 15.7351 13.2384Z" fill="white"/>
</svg>
